X:1
T:When Christ Arose
T:When Christ Arose
T:J. Howard Entwisle
T:Frances Jane (Fanny) Crosby, 1899
T:Public Domain Courtesy of the Cyber Hymnal™
C:J. Howard Entwisle
Z:Public Domain
Z:Courtesy of the Cyber Hymnal™
%%score ( 1 2 ) ( 3 4 )
L:1/8
Q:1/4=110
M:4/4
K:D
V:1 treble 
V:2 treble 
V:3 bass 
V:4 bass 
V:1
 [FA]2 | [GB]2 [Gc]2 [Fd]2 [FA]2 | [Ac]2 [GB]2 [FA]4 | [DF]4 [DF]3 [CE] | [DF]6 [FA]2 | %5
w: 1.~The|earth was filled with|peace and light,|When Christ a-|rose; The|
w: 2.~The|tomb was emp- ty|where He lay,|When Christ a-|rose; And|
w: 3.~The|soul of man was|born a- new,|When Christ a-|rose; The|
 [GB]2 [Bd]2 [Ac]2 [GB]2 | [FA]2 [EG]2 ([DF]2 [CE]2) | D4 [B,D]3 [B,E] | [A,D]6 D2 | %9
w: hea- vens trem- bled|at the sight, *|When Christ a-|rose; The|
w: an- gels rolled the|stone a- way, *|When Christ a-|rose; A|
w: cross di- vine ap-|peared in view, *|When Christ a-|rose; A|
 [DF]2 [EG]2 [FA]2 [GB]2 | [Bd]2 [A=c]2 !fermata![GB]2 G2 | [GB]2 [GB]2 [^GB]2 [GB]2 | %12
w: sea re- joiced a-|long the sands, The|ver- nal val- leys|
w: sound of tri- umph|thrilled the air, The|glor- ious tid- ings|
w: glor- ious light from|hea- ven streamed, And|from the cross a|
 [^Ge]2 [Gd]2 !fermata![Ac]2 A2 | [AB]2 [Ac]2 [Ad]2 [Af]2 | [Ge]2 [Gd]2 (c2 B2) | %15
w: clapped their hands, The|moun- tains sang, and|all the lands, *|
w: to de- clare, And|there was glad- ness|ev- ’ry- where, *|
w: rad- iance beamed, For|ev- ’ry spir- it|was re- deemed, *|
 [FA]4 [Ge]3 [Gc] | [Fd]6 |] %17
w: When Christ a-|rose.|
w: When Christ a-|rose.|
w: When Christ a-|rose.|
V:2
 x2 | x8 | x8 | x8 | x8 | x8 | x8 | D4 x4 | x6 D2 | x8 | x6 G2 | x8 | x6 A2 | x8 | x4 ^E4 | x8 | %16
 x6 |] %17
V:3
 [D,D]2 | [G,D]2 [E,A,]2 [D,A,]2 [D,D]2 | [G,,D]2 [B,,D]2 [D,D]4 | [D,A,]4 [D,A,]3 [A,,A,] | %4
 [D,A,]6 [D,D]2 | [G,D]2 [G,D]2 [G,D]2 [G,D]2 | [D,D]2 [D,A,]2 ([D,A,]2 [A,,G,]2) | %7
 [B,,F,]4 [G,,G,]3 [G,,G,] | [D,F,]6 [D,F,]2 | [D,A,]2 [D,A,]2 [D,D]2 [D,D]2 | %10
 [D,D]2 [F,D]2 !fermata![G,D]2 [G,B,]2 | [G,D]2 [G,D]2 [E,E]2 [E,E]2 | %12
 [E,B,]2 [E,E]2 !fermata![A,E]2 [A,C]2 | [A,D]2 [G,E]2 [F,D]2 [D,D]2 | [G,B,]2 [G,B,]2 (C2 D2) | %15
 [A,D]4 [A,C]3 [A,,A,] | [D,A,]6 |] %17
V:4
 x2 | x8 | x8 | x8 | x8 | x8 | x8 | x8 | x8 | x8 | x8 | x8 | x8 | x8 | x4 ^G,4 | x8 | x6 |] %17

